X: 129
T: Up the Water
B: 204 Favourite Country Dances
N: Published by Straight & Skillern, London ca.1775
F: http://imslp.org/wiki/204_Favourite_Country_Dances_(Various) p.65 #129
Z: 2014 John Chambers <jc:trillian.mit.edu>
M: 2/4
L: 1/8
K: A
% - - - - - - - - - - - - - - - - - - - - - - - - -
|:\
(Ac)(ce) | (Bd)(df) | ecBA | GBGE |\
(Ac)(ce) | (Bd)(da) | geB^d | e2D2 :|
|:\
(fd)(df) | (ec)(ce) | (dB)(Bd) | dBGE |\
(fd)(df) | eaad | cAEG | A2A,2 :|
% - - - - - - - - - - - - - - - - - - - - - - - - -
%%begintext align
%% Cast of 2 Cu. cast up again cross over
%% 2 Cu. Right and Left at top
%%endtext

%%sep 1 1 500
%%sep 1 1 500
